_src/static/img/icon/hand.svg

<svg width="64" height="66" viewBox="0 0 64 66" fill="none" xmlns="http://www.w3.org/2000/svg">
<g clip-path="url(#clip0)">
<path d="M29.5323 44.7647C30.021 44.2606 30.021 43.4449 29.5323 42.9409C29.043 42.4383 28.2505 42.4383 27.7607 42.9409C27.2725 43.4449 27.2725 44.2606 27.7607 44.7647C28.2505 45.2672 29.043 45.2672 29.5323 44.7647Z" fill="url(#paint0_linear)"/>
<path d="M23.6016 14.1757C23.6016 21.9921 29.7801 28.3518 37.3746 28.3518C44.969 28.3518 51.1476 21.9921 51.1476 14.1757C51.1476 6.35921 44.969 0 37.3746 0C29.7801 0 23.6016 6.35921 23.6016 14.1757ZM48.6436 14.1757C48.6436 20.5711 43.5884 25.7742 37.3746 25.7742C31.1608 25.7742 26.1055 20.5711 26.1055 14.1757C26.1055 7.7807 31.1608 2.57762 37.3746 2.57762C43.5884 2.57762 48.6436 7.7807 48.6436 14.1757Z" fill="url(#paint1_linear)"/>
<path d="M14.4865 65.6187C14.9719 66.1222 15.762 66.1278 16.2537 65.6293L22.3241 59.474C23.3554 58.4125 23.669 56.841 23.2155 55.4749L24.5213 54.1788C25.2243 53.4798 26.1499 53.0946 27.1284 53.0946H43.7737C46.7268 53.0946 49.5179 51.9274 51.6338 49.808C51.7209 49.7209 50.9728 50.6278 62.9895 35.8459C64.7718 33.6756 64.5051 30.4167 62.3946 28.5803C60.2972 26.761 57.1553 27.0223 55.3681 29.1553L47.9797 36.9713C47.0467 35.7895 45.624 35.0528 44.0868 35.0528H30.1245C28.1377 34.1973 26.0296 33.7642 23.8544 33.7642C17.8251 33.7642 12.5604 36.6304 9.73507 42.0042C8.54476 41.772 7.28938 42.1426 6.38625 43.0722L0.429792 49.2209C-0.0565099 49.7229 -0.0574883 50.5351 0.427835 51.0387L14.4865 65.6187ZM23.854 36.3414C25.7718 36.3414 27.626 36.7386 29.3662 37.5222C29.5247 37.5937 29.6954 37.6304 29.8681 37.6304H44.0868C45.4445 37.6304 46.5912 38.7699 46.5912 40.2075C46.5912 41.629 45.4679 42.7852 44.0868 42.7852H33.8711C33.1798 42.7852 32.6191 43.3622 32.6191 44.0737C32.6191 44.7857 33.1798 45.3623 33.8711 45.3623H44.0868C46.8486 45.3623 49.0952 43.05 49.0952 40.2075C49.0952 39.9809 49.0795 39.7564 49.0511 39.5338C56.1984 31.9721 57.2062 30.9097 57.2493 30.8568C58.1416 29.7727 59.7258 29.6352 60.7796 30.5496C61.8344 31.4676 61.9679 33.097 61.0731 34.1872L49.8427 48.0054C48.2028 49.6257 46.0497 50.5175 43.7737 50.5175H27.1284C25.4973 50.5175 23.9533 51.1595 22.782 52.3242L21.718 53.3811L11.9088 43.2857C14.2013 38.8591 18.5032 36.3414 23.854 36.3414ZM8.15827 44.8935C8.57118 44.4685 9.20523 44.392 9.70866 44.7122C9.92539 44.8482 9.30308 44.2651 20.5536 55.8284C21.0541 56.3435 21.0271 57.1642 20.5604 57.6446L15.3853 62.892L3.08243 50.1328L8.15827 44.8935Z" fill="url(#paint2_linear)"/>
<path d="M35.8735 6.44385V7.95397C34.4161 8.4857 33.3691 9.91828 33.3691 11.5986C33.3691 13.7301 35.054 15.4648 37.1255 15.4648C37.8158 15.4648 38.3774 16.0428 38.3774 16.7533C38.3774 17.4638 37.8158 18.0419 37.1255 18.0419C36.5907 18.0419 36.0129 17.696 35.4997 17.067C35.0545 16.5222 34.2649 16.4522 33.7355 16.9099C33.2062 17.3682 33.1377 18.1809 33.5829 18.7257C34.2522 19.545 35.0394 20.116 35.8735 20.404V21.9081C35.8735 22.6201 36.4342 23.1966 37.1255 23.1966C37.8168 23.1966 38.3774 22.6201 38.3774 21.9081V20.398C39.8349 19.8657 40.8818 18.4331 40.8818 16.7533C40.8818 14.6213 39.1969 12.8871 37.1255 12.8871C36.4352 12.8871 35.8735 12.3091 35.8735 11.5986C35.8735 10.8881 36.4352 10.3095 37.1255 10.3095C37.5692 10.3095 38.0374 10.5427 38.4797 10.9833C38.9767 11.4782 39.7693 11.4646 40.2502 10.9536C40.7311 10.442 40.7179 9.62622 40.2214 9.13124C39.5858 8.49829 38.9498 8.14028 38.3774 7.9449V6.44385C38.3774 5.73184 37.8168 5.15479 37.1255 5.15479C36.4342 5.15479 35.8735 5.73184 35.8735 6.44385Z" fill="url(#paint3_linear)"/>
</g>
<defs>
<linearGradient id="paint0_linear" x1="26.1424" y1="43.8528" x2="28.7189" y2="46.356" gradientUnits="userSpaceOnUse">
<stop stop-color="#F0CD46"/>
<stop offset="1" stop-color="#EE5768"/>
</linearGradient>
<linearGradient id="paint1_linear" x1="9.82857" y1="14.1759" x2="38.1686" y2="41.7105" gradientUnits="userSpaceOnUse">
<stop stop-color="#F0CD46"/>
<stop offset="1" stop-color="#EE5768"/>
</linearGradient>
<linearGradient id="paint2_linear" x1="-31.9882" y1="46.6845" x2="2.1672" y2="103.363" gradientUnits="userSpaceOnUse">
<stop stop-color="#F0CD46"/>
<stop offset="1" stop-color="#EE5768"/>
</linearGradient>
<linearGradient id="paint3_linear" x1="29.4927" y1="14.1757" x2="42.3934" y2="19.6049" gradientUnits="userSpaceOnUse">
<stop stop-color="#F0CD46"/>
<stop offset="1" stop-color="#EE5768"/>
</linearGradient>
<clipPath id="clip0">
<rect width="64" height="66" fill="white"/>
</clipPath>
</defs>
</svg>

<svg width="64" height="66" fill="none" xmlns="http://www.w3.org/2000/svg"><g clip-path="url(#clip0)"><path d="M29.532 44.765a1.318 1.318 0 000-1.824 1.23 1.23 0 00-1.771 0 1.319 1.319 0 000 1.824 1.23 1.23 0 001.771 0z" fill="url(#paint0_linear)"/><path d="M23.602 14.176c0 7.816 6.178 14.176 13.773 14.176 7.594 0 13.773-6.36 13.773-14.176C51.148 6.359 44.969 0 37.375 0 29.78 0 23.602 6.36 23.602 14.176zm25.042 0c0 6.395-5.056 11.598-11.27 11.598-6.213 0-11.269-5.203-11.269-11.598 0-6.395 5.056-11.598 11.27-11.598 6.213 0 11.269 5.203 11.269 11.598z" fill="url(#paint1_linear)"/><path d="M14.486 65.619a1.228 1.228 0 001.768.01l6.07-6.155c1.031-1.061 1.345-2.633.891-4l1.306-1.295a3.678 3.678 0 012.607-1.084h16.646c2.953 0 5.744-1.168 7.86-3.287.087-.087-.661.82 11.355-13.962 1.783-2.17 1.516-5.43-.594-7.266a4.922 4.922 0 00-7.027.575l-7.388 7.816c-.933-1.181-2.356-1.918-3.893-1.918H30.124a15.757 15.757 0 00-6.27-1.289c-6.029 0-11.294 2.866-14.119 8.24a3.672 3.672 0 00-3.349 1.068L.43 49.221a1.316 1.316 0 00-.002 1.818l14.058 14.58zm9.368-29.278c1.918 0 3.772.398 5.512 1.181.159.072.33.108.502.108h14.219c1.357 0 2.504 1.14 2.504 2.578 0 1.421-1.123 2.577-2.504 2.577H33.87c-.691 0-1.252.577-1.252 1.289s.56 1.288 1.252 1.288h10.216c2.762 0 5.008-2.312 5.008-5.154 0-.227-.015-.452-.044-.674 7.147-7.562 8.155-8.624 8.198-8.677a2.464 2.464 0 013.53-.307c1.055.918 1.189 2.547.294 3.637l-11.23 13.818c-1.64 1.62-3.793 2.512-6.07 2.512H27.129a6.133 6.133 0 00-4.346 1.807l-1.064 1.057-9.81-10.095c2.293-4.427 6.595-6.945 11.946-6.945zM8.158 44.894a1.223 1.223 0 011.55-.182c.217.136-.405-.447 10.846 11.116.5.515.473 1.336.006 1.817l-5.175 5.247-12.303-12.76 5.076-5.238z" fill="url(#paint2_linear)"/><path d="M35.873 6.444v1.51c-1.457.532-2.504 1.964-2.504 3.645 0 2.131 1.685 3.866 3.757 3.866.69 0 1.251.578 1.251 1.288 0 .71-.561 1.289-1.252 1.289-.534 0-1.112-.346-1.625-.975a1.228 1.228 0 00-1.764-.157 1.315 1.315 0 00-.153 1.816c.67.819 1.456 1.39 2.29 1.678v1.504c0 .712.561 1.289 1.253 1.289.69 0 1.251-.577 1.251-1.289v-1.51c1.458-.532 2.505-1.965 2.505-3.645 0-2.132-1.685-3.866-3.756-3.866-.69 0-1.252-.578-1.252-1.288 0-.71.561-1.29 1.252-1.29.443 0 .911.234 1.354.674.497.495 1.29.482 1.77-.03a1.316 1.316 0 00-.029-1.822c-.635-.633-1.271-.99-1.844-1.186V6.444c0-.712-.56-1.29-1.252-1.29-.69 0-1.252.578-1.252 1.29z" fill="url(#paint3_linear)"/></g><defs><linearGradient id="paint0_linear" x1="26.142" y1="43.853" x2="28.719" y2="46.356" gradientUnits="userSpaceOnUse"><stop stop-color="#F0CD46"/><stop offset="1" stop-color="#EE5768"/></linearGradient><linearGradient id="paint1_linear" x1="9.829" y1="14.176" x2="38.169" y2="41.711" gradientUnits="userSpaceOnUse"><stop stop-color="#F0CD46"/><stop offset="1" stop-color="#EE5768"/></linearGradient><linearGradient id="paint2_linear" x1="-31.988" y1="46.684" x2="2.167" y2="103.363" gradientUnits="userSpaceOnUse"><stop stop-color="#F0CD46"/><stop offset="1" stop-color="#EE5768"/></linearGradient><linearGradient id="paint3_linear" x1="29.493" y1="14.176" x2="42.393" y2="19.605" gradientUnits="userSpaceOnUse"><stop stop-color="#F0CD46"/><stop offset="1" stop-color="#EE5768"/></linearGradient><clipPath id="clip0"><path fill="#fff" d="M0 0h64v66H0z"/></clipPath></defs></svg>
